src/svg/icons/light-up.svg

<svg xmlns="http://www.w3.org/2000/svg" viewBox="0 0 20 20"><path d="M19 9.199h-.98c-.553 0-1 .359-1 .801 0 .441.447.799 1 .799H19c.552 0 1-.357 1-.799 0-.441-.449-.801-1-.801zM10 4.5A5.483 5.483 0 0 0 4.5 10c0 3.051 2.449 5.5 5.5 5.5 3.05 0 5.5-2.449 5.5-5.5S13.049 4.5 10 4.5zm0 9.5c-2.211 0-4-1.791-4-4 0-2.211 1.789-4 4-4a4 4 0 0 1 0 8zm-7-4c0-.441-.449-.801-1-.801H1c-.553 0-1 .359-1 .801 0 .441.447.799 1 .799h1c.551 0 1-.358 1-.799zm7-7c.441 0 .799-.447.799-1V1c0-.553-.358-1-.799-1-.442 0-.801.447-.801 1v1c0 .553.359 1 .801 1zm0 14c-.442 0-.801.447-.801 1v1c0 .553.359 1 .801 1 .441 0 .799-.447.799-1v-1c0-.553-.358-1-.799-1zm7.365-13.234c.391-.391.454-.961.142-1.273s-.883-.248-1.272.143l-.7.699c-.391.391-.454.961-.142 1.273s.883.248 1.273-.143l.699-.699zM3.334 15.533l-.7.701c-.391.391-.454.959-.142 1.271s.883.25 1.272-.141l.7-.699c.391-.391.454-.961.142-1.274s-.883-.247-1.272.142zm.431-12.898c-.39-.391-.961-.455-1.273-.143s-.248.883.141 1.274l.7.699c.391.391.96.455 1.272.143s.249-.883-.141-1.273l-.699-.7zm11.769 14.031l.7.699c.391.391.96.453 1.272.143.312-.312.249-.883-.142-1.273l-.699-.699c-.391-.391-.961-.455-1.274-.143s-.248.882.143 1.273z"/></svg>

<?xml version="1.0" encoding="utf-8"?>
<!-- Generator: Adobe Illustrator 18.1.0, SVG Export Plug-In . SVG Version: 6.00 Build 0)  -->
<!DOCTYPE svg PUBLIC "-//W3C//DTD SVG 1.1//EN" "http://www.w3.org/Graphics/SVG/1.1/DTD/svg11.dtd">
<svg version="1.1" id="Light_up" xmlns="http://www.w3.org/2000/svg" xmlns:xlink="http://www.w3.org/1999/xlink" x="0px" y="0px"
	 viewBox="0 0 20 20" enable-background="new 0 0 20 20" xml:space="preserve">
<path d="M19,9.199c-0.182,0-0.799,0-0.98,0c-0.553,0-1,0.359-1,0.801c0,0.441,0.447,0.799,1,0.799c0.182,0,0.799,0,0.98,0
	c0.552,0,1-0.357,1-0.799C20,9.559,19.551,9.199,19,9.199z M10,4.5c-3.051,0-5.5,2.449-5.5,5.5c0,3.051,2.449,5.5,5.5,5.5
	c3.05,0,5.5-2.449,5.5-5.5C15.5,6.949,13.049,4.5,10,4.5z M10,14c-2.211,0-4-1.791-4-4c0-2.211,1.789-4,4-4c2.209,0,4,1.789,4,4
	C14,12.209,12.209,14,10,14z M3,10c0-0.441-0.449-0.801-1-0.801c-0.185,0-0.816,0-1,0c-0.553,0-1,0.359-1,0.801
	c0,0.441,0.447,0.799,1,0.799c0.184,0,0.815,0,1,0C2.551,10.799,3,10.441,3,10z M10,3c0.441,0,0.799-0.447,0.799-1
	c0-0.184,0-0.816,0-1c0-0.553-0.358-1-0.799-1C9.558,0,9.199,0.447,9.199,1c0,0.184,0,0.816,0,1C9.199,2.553,9.558,3,10,3z M10,17
	c-0.442,0-0.801,0.447-0.801,1c0,0.184,0,0.816,0,1c0,0.553,0.359,1,0.801,1c0.441,0,0.799-0.447,0.799-1c0-0.184,0-0.816,0-1
	C10.799,17.447,10.441,17,10,17z M17.365,3.766c0.391-0.391,0.454-0.961,0.142-1.273s-0.883-0.248-1.272,0.143
	c-0.108,0.107-0.593,0.592-0.7,0.699c-0.391,0.391-0.454,0.961-0.142,1.273s0.883,0.248,1.273-0.143
	C16.773,4.357,17.257,3.873,17.365,3.766z M3.334,15.533c-0.108,0.109-0.593,0.594-0.7,0.701c-0.391,0.391-0.454,0.959-0.142,1.271
	s0.883,0.25,1.272-0.141c0.108-0.107,0.593-0.592,0.7-0.699c0.391-0.391,0.454-0.961,0.142-1.274S3.723,15.144,3.334,15.533z
	 M3.765,2.635C3.375,2.244,2.804,2.18,2.492,2.492S2.244,3.375,2.633,3.766c0.108,0.107,0.593,0.592,0.7,0.699
	c0.391,0.391,0.96,0.455,1.272,0.143s0.249-0.883-0.141-1.273C4.357,3.227,3.873,2.742,3.765,2.635z M15.534,16.666
	c0.108,0.107,0.593,0.592,0.7,0.699c0.391,0.391,0.96,0.453,1.272,0.143c0.312-0.312,0.249-0.883-0.142-1.273
	c-0.107-0.107-0.592-0.592-0.699-0.699c-0.391-0.391-0.961-0.455-1.274-0.143S15.143,16.275,15.534,16.666z"/>
</svg>
